public/logos/FX.svg

<?xml version="1.0" encoding="UTF-8"?>
<svg xmlns="http://www.w3.org/2000/svg" xmlns:xlink="http://www.w3.org/1999/xlink" width="176pt" height="53.91pt" viewBox="0 0 176 53.91" version="1.1">
<defs>
<clipPath id="clip1">
  <path d="M 0 0 L 103 0 L 103 53.910156 L 0 53.910156 Z M 0 0 "/>
</clipPath>
</defs>
<g id="surface1">
<path style=" stroke:none;fill-rule:nonzero;fill:rgb(57.446289%,57.780457%,57.661438%);fill-opacity:1;" d="M 131.042969 52.023438 L 145.738281 35.507812 L 131.042969 18.996094 L 146.546875 18.996094 L 153.828125 27.015625 L 160.835938 18.996094 L 175.800781 18.996094 L 161.175781 35.441406 L 176 52.023438 L 160.433594 52.023438 L 153.21875 43.933594 L 146.074219 52.023438 L 131.042969 52.023438 "/>
<path style=" stroke:none;fill-rule:nonzero;fill:rgb(57.446289%,57.780457%,57.661438%);fill-opacity:1;" d="M 131.042969 11.59375 L 114.398438 11.59375 L 114.398438 18.996094 L 131.042969 18.996094 L 131.042969 30.152344 L 114.398438 30.152344 L 114.398438 40.394531 L 131.042969 40.394531 L 131.042969 52.023438 L 102.164062 52.023438 L 102.164062 -0.00390625 L 131.042969 -0.00390625 L 131.042969 11.59375 "/>
<g clip-path="url(#clip1)" clip-rule="nonzero">
<path style=" stroke:none;fill-rule:nonzero;fill:rgb(36.361694%,14.967346%,55.941772%);fill-opacity:1;" d="M 82.589844 44.101562 C 78.097656 44.101562 75.308594 39.917969 75.308594 35.546875 C 75.308594 30.878906 77.734375 26.386719 82.589844 26.386719 C 87.621094 26.386719 89.628906 30.878906 89.628906 35.546875 C 89.628906 39.976562 87.503906 44.101562 82.589844 44.101562 Z M 39.304688 30.308594 C 40.074219 27.003906 42.636719 24.84375 45.835938 24.84375 C 49.355469 24.84375 51.789062 26.9375 52.429688 30.308594 C 52.699219 30.308594 39.304688 30.308594 39.304688 30.308594 Z M 89.984375 -0.00390625 L 89.984375 21.289062 L 89.847656 21.289062 C 87.152344 18.1875 83.78125 17.109375 79.871094 17.109375 C 71.863281 17.109375 65.832031 22.554688 63.714844 29.753906 C 61.296875 21.820312 55.070312 16.960938 45.835938 16.960938 C 38.335938 16.960938 32.414062 20.328125 29.320312 25.8125 L 29.320312 18.996094 L 13.820312 18.996094 L 13.820312 11.59375 L 30.738281 11.59375 L 30.738281 -0.00390625 L 0 -0.00390625 L 0 52.023438 L 13.820312 52.023438 L 13.820312 30.152344 L 27.59375 30.152344 C 27.183594 31.757812 26.964844 33.480469 26.964844 35.292969 C 26.964844 46.148438 35.253906 53.761719 45.835938 53.761719 C 54.730469 53.761719 60.59375 49.585938 63.699219 41.96875 L 51.855469 41.96875 C 50.253906 44.257812 49.035156 44.9375 45.835938 44.9375 C 42.121094 44.9375 38.917969 41.695312 38.917969 37.855469 L 63.035156 37.855469 C 64.078125 46.476562 70.792969 53.910156 80.007812 53.910156 C 83.984375 53.910156 87.621094 51.953125 89.847656 48.652344 L 89.984375 48.652344 L 89.984375 52.019531 L 102.164062 52.019531 L 102.164062 -0.00390625 L 89.984375 -0.00390625 "/>
</g>
</g>
</svg>

<svg xmlns="http://www.w3.org/2000/svg" width="176pt" height="71.88" viewBox="0 0 176 53.91"><defs><clipPath id="a"><path d="M0 0h103v53.91H0Zm0 0"/></clipPath></defs><path d="m131.043 52.023 14.695-16.515-14.695-16.512h15.504l7.281 8.02 7.008-8.02H175.8l-14.625 16.445L176 52.023h-15.566l-7.215-8.09-7.145 8.09zM131.043 11.594h-16.645v7.402h16.645v11.156h-16.645v10.243h16.645v11.628h-28.879V-.004h28.879z" style="stroke:none;fill-rule:nonzero;fill:#929393;fill-opacity:1"/><g clip-path="url(#a)"><path d="M82.59 44.102c-4.492 0-7.281-4.184-7.281-8.555 0-4.668 2.425-9.16 7.28-9.16 5.032 0 7.04 4.492 7.04 9.16 0 4.43-2.125 8.555-7.04 8.555M39.305 30.309c.77-3.305 3.332-5.465 6.53-5.465 3.52 0 5.954 2.093 6.595 5.465zM89.985-.004V21.29h-.137c-2.696-3.102-6.067-4.18-9.977-4.18-8.008 0-14.039 5.446-16.156 12.645-2.418-7.934-8.645-12.793-17.88-12.793-7.5 0-13.42 3.367-16.515 8.852v-6.817h-15.5v-7.402h16.918V-.004H0v52.027h13.82v-21.87h13.774a20.8 20.8 0 0 0-.63 5.14c0 10.855 8.29 18.469 18.872 18.469 8.894 0 14.758-4.176 17.863-11.793H51.855c-1.601 2.289-2.82 2.968-6.02 2.968-3.714 0-6.917-3.242-6.917-7.082h24.117c1.043 8.622 7.758 16.055 16.973 16.055 3.976 0 7.613-1.957 9.84-5.258h.136v3.368h12.18V-.004z" style="stroke:none;fill-rule:nonzero;fill:#5d268f;fill-opacity:1"/></g></svg>
